X: 013
M: C|
L: 1/8
K: F
V: 1
fcAF dBGE | cBAf egce | fcAF dBbg | afeg f/f/ffa |
(ba).g.e egce | (ag).f.e dfBd | gfed cfAc | BdGc AFFB !Segno!y|]
V: 2 clef=bass middle=d


